X: 5144
T: Brig O' Perth, The
R: strathspey
M: 4/4
K: Amixolydian
||A/A/A eA cAfe|ceAe aec2|Aded ceAc|BdGd gd B2|
AAeA cAfe|c/d/e A/c/e aec2|Aded c/d/e A/B/c|B/c/d G/A/B gdB2||
A/A/a ea c/c/a ea|Aaea eA c2|Aaea caef|gage dG B2|
Aaea caea|Aaea eAcg|af g/f/e fd e/d/c|BdGd gdB2||

